X:10
T:Lihapulla tanssii
C:Tuuli Kaihola
K:F
V:1
%%score {1 | 2}
ffff f2 d2 | c8 | cccc A2 G2 | F8 |
w: Li-ha-pul-la tans-sii vaan, li-ha-pul-la tans-sii vaan.
ffff f2 d2 | c8 | c2>c2 AA G2 | F8 |]
w: Li-ha-pul-la tans-sii vaan, ai-na ko-to-naan._
V:2 clef=bass octave=-2
L:1/4
f a f a | f a f a | f a f a | f a f a |
f a f a | f a f a | f a f a | f a f2 |]
%%text Helmikuu 2014

